public/svg/typescript.svg

<svg width="192" height="192" viewBox="0 0 192 192" fill="none" xmlns="http://www.w3.org/2000/svg">
  <path fill-rule="evenodd" clip-rule="evenodd"
    d="M168.562 10C175.984 10 182 16.016 182 23.4375V168.562C182 175.984 175.984 182 168.562 182H23.4375C16.016 182 10 175.984 10 168.562V23.4375C10 16.016 16.016 10 23.4375 10H168.562ZM143.456 81.8906C139.046 81.8906 134.867 82.3645 130.92 83.3118C126.974 84.2585 123.501 85.737 120.502 87.7472C117.504 89.7581 115.134 92.3197 113.393 95.4318C111.652 98.5438 110.781 102.264 110.781 106.594C110.781 112.123 112.377 116.84 115.57 120.745C118.762 124.649 123.607 127.954 130.107 130.661C132.507 131.638 134.887 132.663 137.246 133.735C139.452 134.74 141.358 135.783 142.964 136.866C144.569 137.948 145.836 139.127 146.765 140.403C147.693 141.679 148.158 143.128 148.158 144.752C148.165 145.921 147.865 147.072 147.287 148.087C146.707 149.111 145.826 150.001 144.647 150.755C143.467 151.508 141.996 152.097 140.235 152.523C138.475 152.948 136.414 153.161 134.054 153.161C130.03 153.161 126.045 152.455 122.099 151.044C118.152 149.633 114.495 147.516 111.129 144.694V163.251C114.147 164.798 117.717 165.958 121.838 166.731C125.958 167.505 130.301 167.891 134.867 167.891C139.316 167.891 143.544 167.465 147.548 166.614C151.552 165.764 155.065 164.362 158.082 162.411C161.1 160.458 163.489 157.907 165.25 154.756C167.011 151.605 167.891 147.71 167.891 143.071C167.891 139.707 167.387 136.759 166.382 134.227C165.387 131.712 163.908 129.416 162.029 127.471C160.133 125.499 157.859 123.731 155.21 122.165C152.559 120.6 149.57 119.12 146.242 117.729C143.805 116.723 141.619 115.748 139.684 114.801C137.749 113.853 136.105 112.887 134.751 111.901C133.396 110.915 132.352 109.871 131.617 108.769C130.882 107.667 130.514 106.421 130.514 105.029C130.514 103.753 130.843 102.603 131.5 101.578C132.158 100.554 133.088 99.6744 134.287 98.9401C135.486 98.2052 136.956 97.6354 138.698 97.2289C140.438 96.8231 142.374 96.62 144.502 96.62C146.05 96.6201 147.684 96.7367 149.406 96.9684C151.127 97.2002 152.859 97.5575 154.6 98.0412C156.336 98.5225 158.034 99.1329 159.679 99.8679C161.273 100.575 162.798 101.429 164.234 102.419V85.0801C161.41 83.9977 158.324 83.1954 154.977 82.6734C151.631 82.1513 147.79 81.8906 143.456 81.8906ZM37.5469 98.5143H61.2941V166.547H80.1991V98.5143H104.062V83.2344H37.5469V98.5143Z"
    fill="#00D0FF" />
</svg>

<svg xmlns="http://www.w3.org/2000/svg" width="192" height="192" fill="none" viewBox="0 0 192 192"><path fill="#00d0ff" fill-rule="evenodd" d="M168.562 10C175.984 10 182 16.016 182 23.438v145.124c0 7.422-6.016 13.438-13.438 13.438H23.438C16.016 182 10 175.984 10 168.562V23.438C10 16.016 16.016 10 23.438 10zm-25.106 71.89q-6.615 0-12.536 1.422-5.92 1.42-10.418 4.435-4.497 3.017-7.109 7.685t-2.612 11.162q0 8.293 4.789 14.151 4.788 5.856 14.537 9.916 3.6 1.466 7.139 3.074 3.309 1.507 5.718 3.131t3.801 3.537 1.393 4.349a6.66 6.66 0 0 1-.871 3.335q-.87 1.536-2.64 2.668-1.77 1.13-4.412 1.768-2.64.638-6.181.638-6.036 0-11.955-2.117t-10.97-6.35v18.557q4.527 2.32 10.709 3.48 6.18 1.16 13.029 1.16 6.674 0 12.681-1.277t10.534-4.203a21.44 21.44 0 0 0 7.168-7.655q2.641-4.727 2.641-11.685 0-5.046-1.509-8.844a20.7 20.7 0 0 0-4.353-6.756q-2.845-2.957-6.819-5.306-3.976-2.349-8.968-4.436a114 114 0 0 1-6.558-2.928q-2.902-1.421-4.933-2.9-2.032-1.479-3.134-3.132-1.103-1.653-1.103-3.74 0-1.914.986-3.451.988-1.536 2.787-2.638t4.411-1.711q2.611-.609 5.804-.609 2.322 0 4.904.348t5.194 1.073a36 36 0 0 1 5.079 1.827 28 28 0 0 1 4.555 2.551V85.08q-4.236-1.624-9.257-2.407-5.02-.782-11.521-.782M37.546 98.515h23.748v68.033H80.2V98.514h23.863v-15.28H37.547z" clip-rule="evenodd"/></svg>
